usr/share/icons/biglinux-icons-material-dark/22/actions/im-identi.ca.svg

<svg xmlns="http://www.w3.org/2000/svg" viewBox="0 0 22 22">
  <defs id="defs3051">
    <style type="text/css" id="current-color-scheme">
      .ColorScheme-Text {
        color:#dedede;
      }
      </style>
  </defs>
 <path 
    style="fill:currentColor;fill-opacity:1;stroke:none" 
    d="M 10 3 C 6.676 3 4 5.676 4 9 L 4 13 L 3 17 L 7 15 L 10 15 C 10.818565 15 11.596956 14.835293 12.306641 14.541016 C 12.177653 14.230639 12.102201 13.895445 12.054688 13.550781 C 11.427015 13.833532 10.735425 14 10 14 L 6.6757812 14 L 5 14 L 5 12.324219 L 5 12 L 5 9 C 5 6.23 7.23 4 10 4 C 12.77 4 15 6.23 15 9 C 15 9.0475903 14.993493 9.093362 14.992188 9.140625 C 15.315538 9.0568158 15.64972 9 16 9 C 16 5.676 13.324 3 10 3 z M 16 10 C 14.338 10 13 11.338 13 13 C 13 13.978064 13.47132 14.833863 14.191406 15.380859 L 16 19 L 17.808594 15.380859 C 18.52868 14.833863 19 13.978064 19 13 C 19 11.338 17.662 10 16 10 z M 16 11 C 17.108 11 18 11.892 18 13 C 18 14.108 17.108 15 16 15 C 14.892 15 14 14.108 14 13 C 14 11.892 14.892 11 16 11 z M 6 11.978516 L 6 12 L 6.0175781 12 C 6.0119981 11.99 6.00554 11.986516 6 11.978516 z "
    class="ColorScheme-Text"
    />  
</svg>

<svg xmlns="http://www.w3.org/2000/svg" viewBox="0 0 22 22">
<defs id="defs3051">
<style id="current-color-scheme" type="text/css">
.ColorScheme-Text{color:#dedede}
</style>
</defs>
<path d="M10 3C6.676 3 4 5.676 4 9v4l-1 4 4-2h3c.819 0 1.597-.165 2.307-.459a4 4 0 0 1-.252-.99A5 5 0 0 1 10 14H5V9c0-2.77 2.23-5 5-5s5 2.23 5 5c0 .048-.007.093-.008.14C15.316 9.058 15.65 9 16 9c0-3.324-2.676-6-6-6m6 7a2.993 2.993 0 0 0-1.809 5.38L16 19l1.809-3.62A2.993 2.993 0 0 0 16 10m0 1c1.108 0 2 .892 2 2s-.892 2-2 2-2-.892-2-2 .892-2 2-2m-10 .979V12h.018c-.006-.01-.012-.013-.018-.021" class="ColorScheme-Text" style="fill:currentColor;fill-opacity:1;stroke:none"/>
</svg>
